X:280
T:Fife hunt
A:Wyresdale, Lancashire
B:E and J Winder, 1835-41
L:1/8
M:C|
O:England
Z:Richard Robinson 
%%TranscriptionNotes:Some guesswork here owing to imperfect legibility
%%TUNEURL: http://www.leeds.ac.uk/music/Info/RRTuneBk/gettune/000005d0.html
%%ID:000005d0
K:C
f | \
ecc2 GEE2 | Dddc d2df | ecc2 GEE2 | CccB c3 :: \
f | \
ecgc acgc | Dddc d2df | ! ecgc acgc | GccB c2df |\
ecgc acgc | Dddc d2df |   egcg fadf | GccB c3 :|
